X:1
T: The Stonedyke Jig
C:
R:Jig
Q:180
K:A
M:6/8
L:1/16
f2|:e2f2e2 c4c2|B2c2B2 F4F2|E2G2B2 E2G2B2|d2c2B2 c4f2|
e2f2e2 c4c2|B2c2B2 F4F2|E2G2B2 E2G2B2|1d2c2B2 A4f2 :|2d2c2B2 A2B2A2|
|:G2E2E2 B2A2G2|A2E2E2 c2B2A2|B2E2E2 d2c2B2|e4e2 e2^d2=d2|
c4c2 A2B2c2|B4B2 F4F2|E2G2B2 E2G2B2|1d2c2B2 A2B2A2:|2A6A4||
